uploads/2019/01/15/careers-black.svg

<svg height="16" viewBox="0 0 70 16" width="70" xmlns="http://www.w3.org/2000/svg"><path d="m218.52 16.107c-.745893.0031004-1.48873-.0954734-2.208-.293-.691152-.189734-1.347224-.4895756-1.943-.888-.588717-.3935315-1.109799-.8798296-1.543-1.44-.436-.564-.776-1.233-1.02-2.007-.250582-.8162671-.374358-1.66616783-.367-2.52 0-.807.098-1.577.293-2.31.186914-.71215816.487438-1.38951828.89-2.006.390242-.59839147.874854-1.12960672 1.435-1.573.593669-.46041848 1.264906-.81093798 1.982-1.035.802034-.25311947 1.63901-.37799088 2.48-.37.671 0 1.324.09 1.959.272.634.183 1.264.48 1.89.894.624.413 1.187.93 1.689 1.548l-1.3 1.084c-.517601-.65964091-1.171935-1.19934687-1.918-1.582-.717932-.36779671-1.513341-.55876343-2.32-.557-1.06 0-1.992.241-2.792.723-.792964.47322319-1.430941 1.16714537-1.836 1.997-.424.85-.635 1.821-.635 2.915 0 .664.086 1.286.259 1.865.15664.5470679.404084 1.0639293.732 1.529.316.439.69.817 1.123 1.132.433.316.916.555 1.45.718s1.1.244 1.7.244c1.68 0 3.092-.706 4.238-2.119l1.299 1.094c-.647182.812927-1.457177 1.4815649-2.378 1.963-.922.482-1.975.722-3.16.722zm15.302-9.843h1.621v9.736h-1.552v-1.543h-.03c-.387444.5189608-.890837.940167-1.47 1.23-.6022.2976203-1.266321.4484011-1.938.44-.664 0-1.289-.119-1.875-.356-.567259-.2258029-1.083446-.5631268-1.518-.992-.441065-.4454132-.78527-.977212-1.011-1.562-.252148-.6439839-.378101-1.3304486-.371-2.022 0-.95.203-1.81.61-2.578.389605-.74962455.979461-1.37652024 1.704-1.811.73-.44 1.546-.66 2.451-.66.67 0 1.294.134 1.87.4.574997.26609253 1.078758.6646467 1.47 1.163h.04v-1.445zm-3.213 8.379c.437 0 .853-.083 1.25-.25.389943-.1611121.744856-.3964758 1.045-.693.3-.296.537-.66.713-1.094.176-.432.264-.9.264-1.4 0-.496-.083-.963-.25-1.402-.15305-.41829778-.383005-.80427053-.678-1.138-.593276-.65835801-1.437766-1.03445389-2.324-1.035-.944 0-1.73.329-2.358.986-.629.658-.943 1.52-.943 2.588 0 .996.303 1.818.908 2.466.606.648 1.397.972 2.373.972zm12.637-8.497c.189 0 .322.007.4.02v1.787c-.214162-.01885965-.429012-.02886817-.644-.03-.606 0-1.133.147-1.582.44-.45.293-.791.694-1.025 1.201-.235.508-.352 1.088-.352 1.739v4.697h-1.621v-9.736h1.621v1.699h.039c.337052-.55254112.804779-1.01374313 1.362-1.343.547222-.31690613 1.169673-.48063623 1.802-.474zm10.586 4.834c0 .248-.016.47-.049.665h-7.48c.104.904.452 1.629 1.045 2.172.592.544 1.325.816 2.197.816.58 0 1.1-.119 1.562-.357.455629-.2321261.858118-.5562967 1.182-.952l1.133.967c-.440195.5698152-1.006755 1.0295681-1.655 1.343-.668.329-1.428.493-2.28.493-.657822.0052369-1.310236-.1191294-1.92-.366-.575158-.2306789-1.098157-.5744705-1.538-1.011-.443703-.4517802-.789262-.9903751-1.015-1.582-.251468-.6473122-.377377-1.3365877-.371-2.031 0-.723.12-1.395.36-2.017.242-.622.569-1.149.982-1.582.869135-.89636069 2.066478-1.39913613 3.315-1.392.893 0 1.684.209 2.374.625.69.417 1.222.992 1.597 1.724.374.733.561 1.561.561 2.485zm-4.443-3.34c-.769 0-1.431.24-1.988.718-.556.479-.91 1.125-1.06 1.939h5.88c-.13-.807-.445-1.452-.943-1.934-.498-.481-1.128-.722-1.89-.722zm15.478 3.34c0 .248-.016.47-.049.665h-7.48c.104.904.452 1.629 1.045 2.172.592.544 1.325.816 2.197.816.58 0 1.1-.119 1.563-.357.455269-.2322418.857409-.5564051 1.181-.952l1.133.967c-.440195.5698152-1.006755 1.0295681-1.655 1.343-.668.329-1.428.493-2.28.493-.657822.0052369-1.310236-.1191294-1.92-.366-.575158-.2306789-1.098157-.5744705-1.538-1.011-.443703-.4517802-.789262-.9903751-1.015-1.582-.251468-.6473122-.377377-1.3365877-.371-2.031 0-.723.12-1.395.361-2.017.24-.622.568-1.149.982-1.582.869135-.89636069 2.066478-1.39913613 3.315-1.392.892 0 1.683.209 2.373.625.69.417 1.222.992 1.597 1.724.374.733.561 1.561.561 2.485zm-4.443-3.34c-.768 0-1.43.24-1.987.718-.557.479-.91 1.125-1.06 1.939h5.879c-.13-.807-.444-1.452-.943-1.934-.498-.481-1.127-.722-1.89-.722zm11.719-1.494c.188 0 .322.007.4.02v1.787c-.214495-.01888716-.429678-.02889571-.645-.03-.605 0-1.132.147-1.582.44-.449.293-.79.694-1.025 1.201-.234.508-.352 1.088-.352 1.739v4.697h-1.62v-9.736h1.62v1.699h.04c.337052-.55254112.804779-1.01374313 1.362-1.343.547222-.31690613 1.169673-.48063623 1.802-.474zm5.293 9.981c-1.491 0-2.764-.469-3.819-1.406l.84-1.23c.41.383.848.673 1.314.868.465.196 1.02.293 1.665.293.566 0 1.015-.123 1.347-.37.332-.248.498-.557.498-.928 0-.098-.01-.19-.029-.274-.020735-.0876809-.060699-.1696573-.117-.24-.052398-.0671217-.107787-.1318537-.166-.194-.07437-.0718341-.158539-.1327726-.25-.181-.208956-.1272684-.430042-.2334569-.66-.317-.161-.062-.293-.111-.394-.147-.15512-.0554209-.309792-.1120894-.464-.17-.078663-.0243266-.156689-.0506686-.234-.079-.365-.124-.672-.24-.923-.352-.272-.1219548-.534703-.2636672-.786-.424-.245403-.1488368-.466061-.3350801-.654-.552-.175013-.2164644-.31227-.4608912-.406-.723-.109943-.30345141-.164147-.62427249-.16-.947 0-.742.305-1.362.917-1.86s1.38-.748 2.305-.748c1.256 0 2.373.4 3.35 1.202l-.84 1.279c-.782-.677-1.644-1.016-2.588-1.016-.391 0-.738.106-1.04.318-.303.211-.454.486-.454.825 0 .182.043.348.131.498s.225.286.41.41c.186.124.373.23.562.317.189.088.436.19.742.308 1.042.404 1.67.658 1.885.762.67.332 1.11.739 1.318 1.22.13.3.196.655.196 1.065.00997.7500416-.305102 1.4677053-.864 1.968-.284.257-.652.459-1.104.605-.494693.1527937-1.010295.2270296-1.528.22z" fill="#334146" fill-rule="evenodd" transform="translate(-211 -1)"/></svg>

<?xml version="1.0" encoding="UTF-8"?>
<svg width="70px" height="16px" viewBox="0 0 70 16" version="1.1" xmlns="http://www.w3.org/2000/svg" xmlns:xlink="http://www.w3.org/1999/xlink">
    <!-- Generator: Sketch 52.5 (67469) - http://www.bohemiancoding.com/sketch -->
    <title>Shape</title>
    <desc>Created with Sketch.</desc>
    <g id="Page-1" stroke="none" stroke-width="1" fill="none" fill-rule="evenodd">
        <g id="Artboard" transform="translate(-272.000000, -106.000000)" fill="#334146">
            <g id="wunder-mobility-careers-logo-dark" transform="translate(61.000000, 105.000000)">
                <path d="M218.52,16.107 C217.774107,16.1101004 217.03127,16.0115266 216.312,15.814 C215.620848,15.624266 214.964776,15.3244244 214.369,14.926 C213.780283,14.5324685 213.259201,14.0461704 212.826,13.486 C212.39,12.922 212.05,12.253 211.806,11.479 C211.555418,10.6627329 211.431642,9.81283217 211.439,8.959 C211.439,8.152 211.537,7.382 211.732,6.649 C211.918914,5.93684184 212.219438,5.25948172 212.622,4.643 C213.012242,4.04460853 213.496854,3.51339328 214.057,3.07 C214.650669,2.60958152 215.321906,2.25906202 216.039,2.035 C216.841034,1.78188053 217.67801,1.65700912 218.519,1.665 C219.19,1.665 219.843,1.755 220.478,1.937 C221.112,2.12 221.742,2.417 222.368,2.831 C222.992,3.244 223.555,3.761 224.057,4.379 L222.757,5.463 C222.239399,4.80335909 221.585065,4.26365313 220.839,3.881 C220.121068,3.51320329 219.325659,3.32223657 218.519,3.324 C217.459,3.324 216.527,3.565 215.727,4.047 C214.934036,4.52022319 214.296059,5.21414537 213.891,6.044 C213.467,6.894 213.256,7.865 213.256,8.959 C213.256,9.623 213.342,10.245 213.515,10.824 C213.67164,11.3710679 213.919084,11.8879293 214.247,12.353 C214.563,12.792 214.937,13.17 215.37,13.485 C215.803,13.801 216.286,14.04 216.82,14.203 C217.354,14.366 217.92,14.447 218.52,14.447 C220.2,14.447 221.612,13.741 222.758,12.328 L224.057,13.422 C223.409818,14.234927 222.599823,14.9035649 221.679,15.385 C220.757,15.867 219.704,16.107 218.519,16.107 L218.52,16.107 Z M233.822,6.264 L235.443,6.264 L235.443,16 L233.891,16 L233.891,14.457 L233.861,14.457 C233.473556,14.9759608 232.970163,15.397167 232.391,15.687 C231.7888,15.9846203 231.124679,16.1354011 230.453,16.127 C229.789,16.127 229.164,16.008 228.578,15.771 C228.010741,15.5451971 227.494554,15.2078732 227.06,14.779 C226.618935,14.3335868 226.27473,13.801788 226.049,13.217 C225.796852,12.5730161 225.670899,11.8865514 225.678,11.195 C225.678,10.245 225.881,9.385 226.288,8.617 C226.677605,7.86737545 227.267461,7.24047976 227.992,6.806 C228.722,6.366 229.538,6.146 230.443,6.146 C231.113,6.146 231.737,6.28 232.313,6.546 C232.887997,6.81209253 233.391758,7.2106467 233.783,7.709 L233.823,7.709 L233.823,6.264 L233.822,6.264 Z M230.609,14.643 C231.046,14.643 231.462,14.56 231.859,14.393 C232.248943,14.2318879 232.603856,13.9965242 232.904,13.7 C233.204,13.404 233.441,13.04 233.617,12.606 C233.793,12.174 233.881,11.706 233.881,11.206 C233.881,10.71 233.798,10.243 233.631,9.804 C233.47795,9.38570222 233.247995,8.99972947 232.953,8.666 C232.359724,8.00764199 231.515234,7.63154611 230.629,7.631 C229.685,7.631 228.899,7.96 228.271,8.617 C227.642,9.275 227.328,10.137 227.328,11.205 C227.328,12.201 227.631,13.023 228.236,13.671 C228.842,14.319 229.633,14.643 230.609,14.643 Z M243.246,6.146 C243.435,6.146 243.568,6.153 243.646,6.166 L243.646,7.953 C243.431838,7.93414035 243.216988,7.92413183 243.002,7.923 C242.396,7.923 241.869,8.07 241.42,8.363 C240.97,8.656 240.629,9.057 240.395,9.564 C240.16,10.072 240.043,10.652 240.043,11.303 L240.043,16 L238.422,16 L238.422,6.264 L240.043,6.264 L240.043,7.963 L240.082,7.963 C240.419052,7.41045888 240.886779,6.94925687 241.444,6.62 C241.991222,6.30309387 242.613673,6.13936377 243.246,6.146 Z M253.832,10.98 C253.832,11.228 253.816,11.45 253.783,11.645 L246.303,11.645 C246.407,12.549 246.755,13.274 247.348,13.817 C247.94,14.361 248.673,14.633 249.545,14.633 C250.125,14.633 250.645,14.514 251.107,14.276 C251.562629,14.0438739 251.965118,13.7197033 252.289,13.324 L253.422,14.291 C252.981805,14.8608152 252.415245,15.3205681 251.767,15.634 C251.099,15.963 250.339,16.127 249.487,16.127 C248.829178,16.1322369 248.176764,16.0078706 247.567,15.761 C246.991842,15.5303211 246.468843,15.1865295 246.029,14.75 C245.585297,14.2982198 245.239738,13.7596249 245.014,13.168 C244.762532,12.5206878 244.636623,11.8314123 244.643,11.137 C244.643,10.414 244.763,9.742 245.003,9.12 C245.245,8.498 245.572,7.971 245.985,7.538 C246.854135,6.64163931 248.051478,6.13886387 249.3,6.146 C250.193,6.146 250.984,6.355 251.674,6.771 C252.364,7.188 252.896,7.763 253.271,8.495 C253.645,9.228 253.832,10.056 253.832,10.98 Z M249.389,7.64 C248.62,7.64 247.958,7.88 247.401,8.358 C246.845,8.837 246.491,9.483 246.341,10.297 L252.221,10.297 C252.091,9.49 251.776,8.845 251.278,8.363 C250.78,7.882 250.15,7.641 249.388,7.641 L249.389,7.64 Z M264.867,10.98 C264.867,11.228 264.851,11.45 264.818,11.645 L257.338,11.645 C257.442,12.549 257.79,13.274 258.383,13.817 C258.975,14.361 259.708,14.633 260.58,14.633 C261.16,14.633 261.68,14.514 262.143,14.276 C262.598269,14.0437582 263.000409,13.7195949 263.324,13.324 L264.457,14.291 C264.016805,14.8608152 263.450245,15.3205681 262.802,15.634 C262.134,15.963 261.374,16.127 260.522,16.127 C259.864178,16.1322369 259.211764,16.0078706 258.602,15.761 C258.026842,15.5303211 257.503843,15.1865295 257.064,14.75 C256.620297,14.2982198 256.274738,13.7596249 256.049,13.168 C255.797532,12.5206878 255.671623,11.8314123 255.678,11.137 C255.678,10.414 255.798,9.742 256.039,9.12 C256.279,8.498 256.607,7.971 257.021,7.538 C257.890135,6.64163931 259.087478,6.13886387 260.336,6.146 C261.228,6.146 262.019,6.355 262.709,6.771 C263.399,7.188 263.931,7.763 264.306,8.495 C264.68,9.228 264.867,10.056 264.867,10.98 Z M260.424,7.64 C259.656,7.64 258.994,7.88 258.437,8.358 C257.88,8.837 257.527,9.483 257.377,10.297 L263.256,10.297 C263.126,9.49 262.812,8.845 262.313,8.363 C261.815,7.882 261.186,7.641 260.423,7.641 L260.424,7.64 Z M272.143,6.146 C272.331,6.146 272.465,6.153 272.543,6.166 L272.543,7.953 C272.328505,7.93411284 272.113322,7.92410429 271.898,7.923 C271.293,7.923 270.766,8.07 270.316,8.363 C269.867,8.656 269.526,9.057 269.291,9.564 C269.057,10.072 268.939,10.652 268.939,11.303 L268.939,16 L267.319,16 L267.319,6.264 L268.939,6.264 L268.939,7.963 L268.979,7.963 C269.316052,7.41045888 269.783779,6.94925687 270.341,6.62 C270.888222,6.30309387 271.510673,6.13936377 272.143,6.146 Z M277.436,16.127 C275.945,16.127 274.672,15.658 273.617,14.721 L274.457,13.491 C274.867,13.874 275.305,14.164 275.771,14.359 C276.236,14.555 276.791,14.652 277.436,14.652 C278.002,14.652 278.451,14.529 278.783,14.282 C279.115,14.034 279.281,13.725 279.281,13.354 C279.281,13.256 279.271,13.164 279.252,13.08 C279.231265,12.9923191 279.191301,12.9103427 279.135,12.84 C279.082602,12.7728783 279.027213,12.7081463 278.969,12.646 C278.89463,12.5741659 278.810461,12.5132274 278.719,12.465 C278.510044,12.3377316 278.288958,12.2315431 278.059,12.148 C277.898,12.086 277.766,12.037 277.665,12.001 C277.50988,11.9455791 277.355208,11.8889106 277.201,11.831 C277.122337,11.8066734 277.044311,11.7803314 276.967,11.752 C276.602,11.628 276.295,11.512 276.044,11.4 C275.772,11.2780452 275.509297,11.1363328 275.258,10.976 C275.012597,10.8271632 274.791939,10.6409199 274.604,10.424 C274.428987,10.2075356 274.29173,9.9631088 274.198,9.701 C274.088057,9.39754859 274.033853,9.07672751 274.038,8.754 C274.038,8.012 274.343,7.392 274.955,6.894 C275.567,6.396 276.335,6.146 277.26,6.146 C278.516,6.146 279.633,6.546 280.61,7.348 L279.77,8.627 C278.988,7.95 278.126,7.611 277.182,7.611 C276.791,7.611 276.444,7.717 276.142,7.929 C275.839,8.14 275.688,8.415 275.688,8.754 C275.688,8.936 275.731,9.102 275.819,9.252 C275.907,9.402 276.044,9.538 276.229,9.662 C276.415,9.786 276.602,9.892 276.791,9.979 C276.98,10.067 277.227,10.169 277.533,10.287 C278.575,10.691 279.203,10.945 279.418,11.049 C280.088,11.381 280.528,11.788 280.736,12.269 C280.866,12.569 280.932,12.924 280.932,13.334 C280.94197,14.0840416 280.626898,14.8017053 280.068,15.302 C279.784,15.559 279.416,15.761 278.964,15.907 C278.469307,16.0597937 277.953705,16.1340296 277.436,16.127 Z" id="Shape"></path>
            </g>
        </g>
    </g>
</svg>
